X: 569
T: Wan diao
L: 1/16
M: 2/4
K: A
e2> c2 B3 c [I:setbarnb 1]| 
A2 F2B4 | 
e2 c B e2 c B | 
A2 A FB4 | 
e2 e2 e2 e2 | 
F2 B B B A G F | 
E E E E B2 G F | 
E8 |]

@@@ Tune index: 9443
